13/img/icons/sprite.svg

<svg xmlns="http://www.w3.org/2000/svg" xmlns:xlink="http://www.w3.org/1999/xlink">
  <symbol id="vc" viewBox="0 0 24 24" fill="none" xmlns="http://www.w3.org/2000/svg">
    <g clip-path="url(#clip0_35711_981)">
      <path fill-rule="evenodd" clip-rule="evenodd" d="M23.45 5.948C23.616 5.402 23.45 5 22.655 5H20.03C19.362 5 19.054 5.347 18.887 5.73C18.887 5.73 17.552 8.926 15.661 11.002C15.049 11.604 14.771 11.795 14.437 11.795C14.27 11.795 14.019 11.604 14.019 11.057V5.948C14.019 5.292 13.835 5 13.279 5H9.151C8.734 5 8.483 5.304 8.483 5.593C8.483 6.214 9.429 6.358 9.526 8.106V11.904C9.526 12.737 9.373 12.888 9.039 12.888C8.149 12.888 5.984 9.677 4.699 6.003C4.45 5.288 4.198 5 3.527 5H0.9C0.15 5 0 5.347 0 5.73C0 6.412 0.89 9.8 4.145 14.281C6.315 17.341 9.37 19 12.153 19C13.822 19 14.028 18.632 14.028 17.997V15.684C14.028 14.947 14.186 14.8 14.715 14.8C15.105 14.8 15.772 14.992 17.33 16.467C19.11 18.216 19.403 19 20.405 19H23.03C23.78 19 24.156 18.632 23.94 17.904C23.702 17.18 22.852 16.129 21.725 14.882C21.113 14.172 20.195 13.407 19.916 13.024C19.527 12.533 19.638 12.314 19.916 11.877C19.916 11.877 23.116 7.451 23.449 5.948H23.45Z" fill="white"/>
    </g>
  <defs>
    <clipPath id="clip0_35711_981">
      <rect width="24" height="24" fill="white"/>
    </clipPath>
  </defs>
  </symbol>
    <symbol id="youtube" viewBox="0 0 24 24" fill="none" xmlns="http://www.w3.org/2000/svg">
    <path d="M22.4393 4.62225L19.2705 19.566C19.0313 20.6205 18.408 20.883 17.5223 20.3865L12.6938 16.8285L10.3643 19.0695C10.1063 19.3275 9.891 19.5428 9.39375 19.5428L9.741 14.6258L18.6893 6.54C19.0785 6.1935 18.6045 6.00075 18.0848 6.348L7.02225 13.314L2.25976 11.823C1.22401 11.4998 1.20526 10.7873 2.47576 10.29L21.1035 3.11325C21.966 2.79 22.7205 3.30525 22.4393 4.623V4.62225Z" fill="white"/>
  </symbol>
  <symbol id="telegram" viewBox="0 0 20 14" fill="none" xmlns="http://www.w3.org/2000/svg">
    <path d="M17.1813 0H2.81331C1.30618 0 0 1.3 0 2.8V11.1C0 12.7 1.30618 14 2.81331 14H17.1813C18.7889 14 19.9946 12.7 19.9946 11.2V2.8C20.095 1.3 18.7889 0 17.1813 0ZM7.03326 10.4V3.6L13.8656 7L7.03326 10.4Z" fill="white"/>
  </symbol>
    <symbol id="copyright" xmlns="http://www.w3.org/2000/svg" viewBox="0 0 60 60"><path d="M30.2 5h-.2l-19.7 2.1v36.2l19.7 11.7 19.7-11.7v-36.2l-19.5-2.1zm17 36.8l-17.2 10.2-17.2-10.2v-14.8l17.1 10.2v1.8l-11.7-7v1.8l11.8 7.1v1.9l-11.8-7v1.8l11.8 7 11.9-7.1v-7.6l5.3-3.2v15.1zm-.1-17l-4.7 2.8-2.2 1.3-10.3-6.1v1.8l8.8 5.3h-.1l-.2.1-1.3.7-7.3-4.3v1.8l5.8 3.4-1.4.9-4.3-2.6v1.8l2.9 1.7-2.9 1.7-17-10.1 17-10.2 17.2 10zm.1-1.8l-17.3-10.2-17.1 10.2v-13.6l17.2-1.8 17.2 1.8v13.6z" fill="current-color"/>
  </symbol>
  <symbol id="card__icon" viewBox="0 0 23 21" xmlns="http://www.w3.org/2000/svg">
    <path d="M12.9636 3.78L12.3364 6.825L11.7091 9.45H14.3227H20.8045V11.55C20.8045 11.55 20.8045 11.55 20.8045 11.655L17.7727 18.9H8.36364V8.4L12.9636 3.78ZM2.09091 10.5V18.9V10.5ZM13.8 0L6.9 6.93C6.48182 7.245 6.27273 7.77 6.27273 8.4V18.9C6.27273 20.055 7.21364 21 8.36364 21H17.7727C18.6091 21 19.3409 20.475 19.6545 19.74L22.7909 12.285C22.8955 12.075 22.8955 11.76 22.8955 11.55V9.45H23C23 8.295 22.0591 7.35 20.9091 7.35H14.3227L15.3682 2.52V2.205C15.3682 1.785 15.1591 1.365 14.95 1.05L13.8 0ZM4.18182 8.4H0V21H4.18182V8.4Z" fill="current-color"/>
  </symbol>
  <symbol id="phone-icon" viewBox="0 0 58 58" xmlns="http://www.w3.org/2000/svg">
    <rect width="58" height="58" fill="#E6E6E6"/>
    <path d="M23.6 27.8C25 30.6 27.4 32.9 30.2 34.4L32.4 32.2C32.7 31.9 33.1 31.8 33.4 32C34.5 32.4 35.7 32.6 37 32.6C37.6 32.6 38 33 38 33.6V37C38 37.6 37.6 38 37 38C27.6 38 20 30.4 20 21C20 20.4 20.4 20 21 20H24.5C25.1 20 25.5 20.4 25.5 21C25.5 22.2 25.7 23.4 26.1 24.6C26.2 24.9 26.1 25.3 25.9 25.6L23.6 27.8Z" fill="#010101"/>
  </symbol>
  <symbol id="email-icon" viewBox="0 0 58 58" xmlns="http://www.w3.org/2000/svg">
    <rect width="58" height="58" fill="#E6E6E6"/>
    <path d="M29 31C28.7 31 28.5 30.9 28 30.7L21 27V34C21 34.5 21.5 35 22 35H36C36.5 35 37 34.5 37 34V27L30 30.7C29.5 30.9 29.3 31 29 31ZM36 23H22C21.5 23 21 23.5 21 24V24.8L29 29L37 24.8V24C37 23.5 36.5 23 36 23Z" fill="black"/>
  </symbol>
</svg>

<svg xmlns="http://www.w3.org/2000/svg" xmlns:xlink="http://www.w3.org/1999/xlink"><defs><clipPath id="a"><path fill="#fff" d="M0 0h24v24H0z"/></clipPath></defs><symbol id="copyright" viewBox="0 0 60 60"><path fill="#2E368F" d="M30.2 5H30L10.3 7.1v36.2L30 55l19.7-11.7V7.1L30.2 5zm17 36.8L30 52 12.8 41.8V27l17.1 10.2V39l-11.7-7v1.8L30 40.9v1.9l-11.8-7v1.8l11.8 7 11.9-7.1v-7.6l5.3-3.2v15.1zm-.1-17-4.7 2.8-2.2 1.3-10.3-6.1v1.8l8.8 5.3h-.1l-.2.1-1.3.7-7.3-4.3v1.8l5.8 3.4-1.4.9-4.3-2.6v1.8l2.9 1.7-2.9 1.7-17-10.1 17-10.2 17.2 10zm.1-1.8L29.9 12.8 12.8 23V9.4L30 7.6l17.2 1.8V23z"/></symbol><symbol id="email-icon"><g fill="none"><path fill="#E6E6E6" d="M0 0h58v58H0z"/><path d="M29 31c-.3 0-.5-.1-1-.3L21 27v7c0 .5.5 1 1 1h14c.5 0 1-.5 1-1v-7l-7 3.7c-.5.2-.7.3-1 .3Zm7-8H22c-.5 0-1 .5-1 1v.8l8 4.2 8-4.2V24c0-.5-.5-1-1-1Z" fill="#000"/></g></symbol><symbol id="like" viewBox="0 0 23 21"><g fill="none"><path opacity=".3" d="m12.964 3.78-.628 3.045-.627 2.625h9.096v2.205L17.773 18.9h-9.41V8.4l4.6-4.62ZM2.09 10.5v8.4-8.4ZM13.8 0 6.9 6.93c-.418.315-.627.84-.627 1.47v10.5c0 1.155.94 2.1 2.09 2.1h9.41c.836 0 1.568-.525 1.881-1.26l3.137-7.455c.104-.21.104-.525.104-.735v-2.1H23c0-1.155-.94-2.1-2.09-2.1h-6.587l1.045-4.83v-.315c0-.42-.209-.84-.418-1.155L13.8 0ZM4.182 8.4H0V21h4.182V8.4Z" fill="#000"/></g></symbol><symbol id="phone-icon"><g fill="none"><path fill="#E6E6E6" d="M0 0h58v58H0z"/><path d="M23.6 27.8c1.4 2.8 3.8 5.1 6.6 6.6l2.2-2.2c.3-.3.7-.4 1-.2 1.1.4 2.3.6 3.6.6.6 0 1 .4 1 1V37c0 .6-.4 1-1 1-9.4 0-17-7.6-17-17 0-.6.4-1 1-1h3.5c.6 0 1 .4 1 1 0 1.2.2 2.4.6 3.6.1.3 0 .7-.2 1l-2.3 2.2Z" fill="#010101"/></g></symbol><symbol id="telegram" viewBox="0 0 24 24"><g fill="none"><path d="m22.44 4.622-3.17 14.944c-.239 1.055-.862 1.317-1.748.82l-4.828-3.558-2.33 2.242c-.258.258-.473.473-.97.473l.347-4.917 8.948-8.086c.39-.346-.084-.54-.604-.192L7.022 13.314 2.26 11.823c-1.036-.323-1.055-1.036.216-1.533l18.627-7.177c.863-.323 1.617.192 1.336 1.51Z" fill="#fff"/></g></symbol><symbol id="vk" viewBox="0 0 24 24"><g fill="none"><g clip-path="url(#a)"><path fill-rule="evenodd" clip-rule="evenodd" d="M23.45 5.948c.166-.546 0-.948-.795-.948H20.03c-.668 0-.976.347-1.143.73 0 0-1.335 3.196-3.226 5.272-.612.602-.89.793-1.224.793-.167 0-.418-.191-.418-.738V5.948c0-.656-.184-.948-.74-.948H9.151c-.417 0-.668.304-.668.593 0 .621.946.765 1.043 2.513v3.798c0 .833-.153.984-.487.984-.89 0-3.055-3.211-4.34-6.885C4.45 5.288 4.198 5 3.527 5H.9c-.75 0-.9.347-.9.73 0 .682.89 4.07 4.145 8.551C6.315 17.341 9.37 19 12.153 19c1.669 0 1.875-.368 1.875-1.003v-2.313c0-.737.158-.884.687-.884.39 0 1.057.192 2.615 1.667C19.11 18.216 19.403 19 20.405 19h2.625c.75 0 1.126-.368.91-1.096-.238-.724-1.088-1.775-2.215-3.022-.612-.71-1.53-1.475-1.809-1.858-.389-.491-.278-.71 0-1.147 0 0 3.2-4.426 3.533-5.929h.001Z" fill="#fff"/></g></g></symbol><symbol id="youtube" viewBox="0 0 20 14"><g fill="none"><path d="M17.181 0H2.813C1.306 0 0 1.3 0 2.8v8.3C0 12.7 1.306 14 2.813 14h14.368c1.608 0 2.814-1.3 2.814-2.8V2.8c.1-1.5-1.206-2.8-2.814-2.8ZM7.033 10.4V3.6L13.866 7l-6.833 3.4Z" fill="#fff"/></g></symbol></svg>
